X: 1
T:Summerside Caledonia Pipe Band
M:6/8
L:1/8
Q:80
C:Michael Linkletter
S:Jig
K:HP
|: e|
{g}A{d}A{e}A{g}Bcd|
{g}cde{gfg}f2e|
{g}fga{ef}e2A|  !
{g}c{d}B{e}B{G}B2e|
{g}A{d}A{e}A{g}Bcd|
{g}cde{gfg}f2e|  !
{g}fga{ef}e2c|
{g}Be{g}c{d}A2:| |:
a|  !
{fg}f2a{ef}e2A|
{g}c{d}c{e}c{gcd}c2B|
{gef}e2A{gcd}c2B|  !
{g}c{d}B{e}B{G}B2|1 a|1
{fg}f2a{ef}e2A|
{g}c{d}c{e}c{gcd}c2a|  !
fga{ef}e2c|
{g}Be{g}c{d}A2:|2
e|  !
{g}A{d}A{e}A{g}Bcd|
{g}cde{gfg}f2e|
{g}fga{ef}e2c|  !
{g}Be{g}c{d}A2|] |:
e|
{g}c{d}c{e}c{g}cB{G}A|
{g}A{d}ca{fg}f2a|  !
f{g}e{A}e{g}ec{d}A|
{g}c{d}B{e}B{G}B2e|
{g}c{d}c{e}c{g}cB{G}A|  !
{g}A{d}ca{fg}f2e|
{g}fga{ef}e2c|
{g}Be{g}c{d}A2:| |:  !
a|
{fg}f2e{gcd}c2e|
{g}fga{fg}f2e|
{gfg}f2e{gcd}c2B|  !
{g}c{d}B{e}B{G}B2|1 a|1
{fg}f2e{gcd}c2e|
{g}fga{fg}f2e|  !
{g}fga{ef}e2c|
{g}Be{g}c{d}A2:|
A|  !
{g}B{d}B{G}B{gBeBG}B2{g}B|
{g}Bcd{g}efg|
{a}fgaefg|  !
{a}Be{g}c{d}A2|]
